src/icons/3x5.svg

<svg xmlns="http://www.w3.org/2000/svg" width="512" height="512" viewBox="0 0 512 512">
    <path d="M373.7 320.9H416v88.6h-42.3v-88.6zm-69.4 0h42.3v88.6h-42.3v-88.6zm-69.5 0h42.3v88.6h-42.3v-88.6zm-69.4 0h42.3v88.6h-42.3v-88.6zm-69.4 0h42.3v88.6H96v-88.6zm277.7-115.7H416v88.6h-42.3v-88.6zm-69.4 0h42.3v88.6h-42.3v-88.6zm-69.5 0h42.3v88.6h-42.3v-88.6zm-69.4 0h42.3v88.6h-42.3v-88.6zm-69.4 0h42.3v88.6H96v-88.6zM373.7 89.5H416v88.6h-42.3V89.5zm-69.4 0h42.3v88.6h-42.3V89.5zm-69.5 0h42.3v88.6h-42.3V89.5zm-69.4 0h42.3v88.6h-42.3V89.5zm-69.4 0h42.3v88.6H96V89.5z"/>
</svg>

<?xml version="1.0" encoding="UTF-8"?>
<svg width="512px" height="512px" viewBox="0 0 512 512" version="1.1" xmlns="http://www.w3.org/2000/svg" xmlns:xlink="http://www.w3.org/1999/xlink">
    <!-- Generator: Sketch 62 (91390) - https://sketch.com -->
    <title>3x5</title>
    <desc>Created with Sketch.</desc>
    <g id="3x5" stroke="none" stroke-width="1" fill="none" fill-rule="evenodd">
        <path d="M373.7,320.9 L416,320.9 L416,409.5 L373.7,409.5 L373.7,320.9 Z M304.3,320.9 L346.6,320.9 L346.6,409.5 L304.3,409.5 L304.3,320.9 Z M234.8,320.9 L277.1,320.9 L277.1,409.5 L234.8,409.5 L234.8,320.9 Z M165.4,320.9 L207.7,320.9 L207.7,409.5 L165.4,409.5 L165.4,320.9 L165.4,320.9 Z M96,320.9 L138.3,320.9 L138.3,409.5 L96,409.5 L96,320.9 L96,320.9 Z M373.7,205.2 L416,205.2 L416,293.8 L373.7,293.8 L373.7,205.2 L373.7,205.2 Z M304.3,205.2 L346.6,205.2 L346.6,293.8 L304.3,293.8 L304.3,205.2 Z M234.8,205.2 L277.1,205.2 L277.1,293.8 L234.8,293.8 L234.8,205.2 Z M165.4,205.2 L207.7,205.2 L207.7,293.8 L165.4,293.8 L165.4,205.2 L165.4,205.2 Z M96,205.2 L138.3,205.2 L138.3,293.8 L96,293.8 L96,205.2 L96,205.2 Z M373.7,89.5 L416,89.5 L416,178.1 L373.7,178.1 L373.7,89.5 Z M304.3,89.5 L346.6,89.5 L346.6,178.1 L304.3,178.1 L304.3,89.5 Z M234.8,89.5 L277.1,89.5 L277.1,178.1 L234.8,178.1 L234.8,89.5 Z M165.4,89.5 L207.7,89.5 L207.7,178.1 L165.4,178.1 L165.4,89.5 L165.4,89.5 Z M96,89.5 L138.3,89.5 L138.3,178.1 L96,178.1 L96,89.5 Z" id="Shape" fill="#000000" fill-rule="nonzero"></path>
    </g>
</svg>
